X: 228
%
T: The Highland Society of London
C:Pipe tune
O:Scotland
B:Keith Norman MacDonald : "The Skye collection of the best reels & strathspeys extant" : 1887
Z:Ralph Palmer
R:Strathspey
M:C
L:1/8
K:A
a | A<AeA cAAB | =g2 ed B=GGa | [1 AAeA cAAB | =g2 dB AAA :| [2 A<AeA c2 Ae | =g2 dB AAA ||
e | A<AeA a2 ef | =g2 ed B=GAB | [1 A<AeA a2 ef | =g2 dB AAA :| [2 A<AeA c2 Ae | =g2 dB AAA |]


